src/icons/logos/vercel-grid.svg

<svg width="569" height="220" viewBox="0 0 569 220" fill="none" xmlns="http://www.w3.org/2000/svg">
    <path d="M284.334 83.5571C262.216 83.5571 246.268 97.9825 246.268 119.621C246.268 141.259 264.219 155.684 286.338 155.684C299.701 155.684 311.482 150.395 318.775 141.479L303.448 132.623C299.401 137.051 293.25 139.636 286.338 139.636C276.741 139.636 268.587 134.627 265.561 126.613H321.7C322.141 124.369 322.401 122.045 322.401 119.6C322.401 97.9825 306.453 83.5571 284.334 83.5571V83.5571ZM265.381 112.608C267.886 104.614 274.738 99.5853 284.314 99.5853C293.911 99.5853 300.763 104.614 303.248 112.608H265.381V112.608ZM500.074 83.5571C477.955 83.5571 462.007 97.9825 462.007 119.621C462.007 141.259 479.958 155.684 502.077 155.684C515.441 155.684 527.221 150.395 534.514 141.479L519.187 132.623C515.14 137.051 508.989 139.636 502.077 139.636C492.48 139.636 484.326 134.627 481.301 126.613H537.439C537.88 124.369 538.14 122.045 538.14 119.6C538.14 97.9825 522.192 83.5571 500.074 83.5571V83.5571ZM481.14 112.608C483.645 104.614 490.497 99.5853 500.074 99.5853C509.67 99.5853 516.522 104.614 519.007 112.608H481.14V112.608ZM402.943 119.621C402.943 131.642 410.797 139.656 422.978 139.656C431.233 139.656 437.423 135.909 440.609 129.798L455.996 138.674C449.625 149.293 437.684 155.684 422.978 155.684C400.839 155.684 384.911 141.259 384.911 119.621C384.911 97.9825 400.859 83.5571 422.978 83.5571C437.684 83.5571 449.605 89.9484 455.996 100.567L440.609 109.443C437.423 103.332 431.233 99.5853 422.978 99.5853C410.817 99.5853 402.943 107.599 402.943 119.621ZM568.193 61.5184V153.68H550.162V61.5184H568.193ZM75.7879 51.5008L149.818 179.726H1.75781L75.7879 51.5008ZM260.873 61.5184L205.356 157.687L149.838 61.5184H170.655L205.356 121.624L240.057 61.5184H260.873V61.5184ZM378.901 85.5607V104.975C376.897 104.394 374.773 103.993 372.489 103.993C360.849 103.993 352.454 112.007 352.454 124.028V153.68H334.422V85.5607H352.454V103.993C352.454 93.8152 364.295 85.5607 378.901 85.5607Z" fill="currentColor"/>
</svg>

<svg xmlns="http://www.w3.org/2000/svg" width="569" height="220" fill="none">
    <path fill="currentColor"
        d="M284.334 83.557c-22.118 0-38.066 14.425-38.066 36.064 0 21.638 17.951 36.063 40.07 36.063 13.363 0 25.144-5.289 32.437-14.205l-15.327-8.856c-4.047 4.428-10.198 7.013-17.11 7.013-9.597 0-17.751-5.009-20.777-13.023H321.7c.441-2.244.701-4.568.701-7.013 0-21.617-15.948-36.043-38.067-36.043Zm-18.953 29.051c2.505-7.994 9.357-13.023 18.933-13.023 9.597 0 16.449 5.029 18.934 13.023h-37.867Zm234.693-29.05c-22.119 0-38.067 14.424-38.067 36.063 0 21.638 17.951 36.063 40.07 36.063 13.364 0 25.144-5.289 32.437-14.205l-15.327-8.856c-4.047 4.428-10.198 7.013-17.11 7.013-9.597 0-17.751-5.009-20.776-13.023h56.138c.441-2.244.701-4.568.701-7.013 0-21.617-15.948-36.043-38.066-36.043Zm-18.934 29.05c2.505-7.994 9.357-13.023 18.934-13.023 9.596 0 16.448 5.029 18.933 13.023H481.14Zm-78.197 7.013c0 12.021 7.854 20.035 20.035 20.035 8.255 0 14.445-3.747 17.631-9.858l15.387 8.876c-6.371 10.619-18.312 17.01-33.018 17.01-22.139 0-38.067-14.425-38.067-36.063s15.948-36.064 38.067-36.064c14.706 0 26.627 6.391 33.018 17.01l-15.387 8.876c-3.186-6.111-9.376-9.858-17.631-9.858-12.161 0-20.035 8.014-20.035 20.036Zm165.25-58.103v92.162h-18.031V61.518h18.031ZM75.788 51.501l74.03 128.225H1.758l74.03-128.225Zm185.085 10.017-55.517 96.169-55.518-96.169h20.817l34.701 60.106 34.701-60.106h20.816Zm118.028 24.043v19.414c-2.004-.581-4.128-.982-6.412-.982-11.64 0-20.035 8.014-20.035 20.035v29.652h-18.032V85.56h18.032v18.433c0-10.178 11.841-18.432 26.447-18.432Z" />
</svg>
